bundles/org.openhab.ui.habpanel/web/assets/icons/smarthome-set/socket-g.svg

<?xml version="1.0" encoding="UTF-8" standalone="no"?>
<svg width="32px" height="32px" viewBox="0 0 32 32" version="1.1" xmlns="http://www.w3.org/2000/svg" xmlns:xlink="http://www.w3.org/1999/xlink" xmlns:sketch="http://www.bohemiancoding.com/sketch/ns">
    <!-- Generator: Sketch 3.3.2 (12043) - http://www.bohemiancoding.com/sketch -->
    <title>socket g</title>
    <desc>Created with Sketch.</desc>
    <defs></defs>
    <g id="flatten" stroke="none" stroke-width="1" fill="none" fill-rule="evenodd" sketch:type="MSPage">
        <g id="z-copy" sketch:type="MSArtboardGroup" transform="translate(-4.000000, -132.000000)" fill="#000000">
            <g id="socket-g" sketch:type="MSLayerGroup" transform="translate(4.000000, 132.000000)">
                <path d="M0,6.00017566 C0,2.68637015 2.68697795,0 6.00017566,0 L25.9998243,0 C29.3136299,0 32,2.68697795 32,6.00017566 L32,25.9998243 C32,29.3136299 29.3130221,32 25.9998243,32 L6.00017566,32 C2.68637015,32 0,29.3130221 0,25.9998243 L0,6.00017566 Z M2,6.00017566 L2,25.9998243 C2,28.2086938 3.79118088,30 6.00017566,30 L25.9998243,30 C28.2086938,30 30,28.2088191 30,25.9998243 L30,6.00017566 C30,3.7913062 28.2088191,2 25.9998243,2 L6.00017566,2 C3.7913062,2 2,3.79118088 2,6.00017566 Z M4,9.00197269 C4,6.23945945 6.23630996,4 9.00197269,4 L22.9980273,4 C25.7605405,4 28,6.23630996 28,9.00197269 L28,22.9980273 C28,25.7605405 25.76369,28 22.9980273,28 L9.00197269,28 C6.23945945,28 4,25.76369 4,22.9980273 L4,9.00197269 Z M5,9.00197269 L5,22.9980273 C5,25.2102201 6.79055863,27 9.00197269,27 L22.9980273,27 C25.2102201,27 27,25.2094414 27,22.9980273 L27,9.00197269 C27,6.78977986 25.2094414,5 22.9980273,5 L9.00197269,5 C6.78977986,5 5,6.79055863 5,9.00197269 Z M16,25 C11.0294373,25 7,20.9705627 7,16 C7,11.0294373 11.0294373,7 16,7 C20.9705627,7 25,11.0294373 25,16 C25,20.9705627 20.9705627,25 16,25 Z M16,24 C20.418278,24 24,20.418278 24,16 C24,11.581722 20.418278,8 16,8 C11.581722,8 8,11.581722 8,16 C8,20.418278 11.581722,24 16,24 Z M16,15 C15.4477153,15 15,14.5566468 15,13.9906311 L15,12.0093689 C15,11.4519098 15.4438648,11 16,11 C16.5522847,11 17,11.4433532 17,12.0093689 L17,13.9906311 C17,14.5480902 16.5561352,15 16,15 Z M17,18 C17,17.4477153 17.4433532,17 18.0093689,17 L19.9906311,17 C20.5480902,17 21,17.4438648 21,18 C21,18.5522847 20.5566468,19 19.9906311,19 L18.0093689,19 C17.4519098,19 17,18.5561352 17,18 Z M11,18 C11,17.4477153 11.4433532,17 12.0093689,17 L13.9906311,17 C14.5480902,17 15,17.4438648 15,18 C15,18.5522847 14.5566468,19 13.9906311,19 L12.0093689,19 C11.4519098,19 11,18.5561352 11,18 Z" sketch:type="MSShapeGroup"></path>
            </g>
        </g>
    </g>
</svg>

<svg width="32" height="32" xmlns="http://www.w3.org/2000/svg"><path d="M0 6a6 6 0 0 1 6-6h20a6 6 0 0 1 6 6v20a6 6 0 0 1-6 6H6a6 6 0 0 1-6-6V6Zm2 0v20a4 4 0 0 0 4 4h20a4 4 0 0 0 4-4V6a4 4 0 0 0-4-4H6a4 4 0 0 0-4 4Zm2 3.002A5 5 0 0 1 9.002 4h13.996A5 5 0 0 1 28 9.002v13.996A5 5 0 0 1 22.998 28H9.002A5 5 0 0 1 4 22.998V9.002Zm1 0v13.996A4 4 0 0 0 9.002 27h13.996A4 4 0 0 0 27 22.998V9.002A4 4 0 0 0 22.998 5H9.002A4 4 0 0 0 5 9.002ZM16 25a9 9 0 1 1 0-18 9 9 0 0 1 0 18Zm0-1a8 8 0 1 0 0-16 8 8 0 0 0 0 16Zm0-9a1 1 0 0 1-1-1.01v-1.98a1 1 0 1 1 2 0v1.98c0 .558-.444 1.01-1 1.01Zm1 3a1 1 0 0 1 1.01-1h1.98a1 1 0 1 1 0 2h-1.98c-.558 0-1.01-.444-1.01-1Zm-6 0a1 1 0 0 1 1.01-1h1.98a1 1 0 1 1 0 2h-1.98c-.558 0-1.01-.444-1.01-1Z" fill="#000" fill-rule="evenodd"/></svg>
